8/images/icons/star.svg

<svg width="19" height="17" viewBox="0 0 24 17" fill="none" xmlns="http://www.w3.org/2000/svg">
<path d="M9.39282 0L11.4928 6.5H18.3928L12.7928 10.5L14.9928 17L9.39282 13L3.79282 17L5.99282 10.5L0.392822 6.5H7.29282L9.39282 0Z" fill="#83b3d3"/>
</svg>

<svg xmlns="http://www.w3.org/2000/svg" width="24" height="17" fill="none" viewBox="0 0 19 17"><path fill="#83b3d3" d="m9.393 0 2.1 6.5h6.9l-5.6 4 2.2 6.5-5.6-4-5.6 4 2.2-6.5-5.6-4h6.9l2.1-6.5Z"/></svg>
